X:18
T:Hambraeuspolskan
R:polska K1
A:Orsa, Dalarna
Z:id:hn-k1-18
M:3/4
L:1/8
K:D
A|S d>c de/f/ gf|S d<c A3G|=F2 GB A>G|G=F DE =C>A|
S d>c de/f/ gf|S d<c AG =F2-|=F(3G/F/E/ =FG A/B/A/G/|S Ec d3:|
|:A|=ce de c>d|e2 g/f/g/b/ a>g|ef de =cA/c/|e>d Bd/=c/ A>A|
=ce de c>d|S e>g (3bgb a>g|ef de =c>d|S e/f/e/^c/ d3:|
<end>
<start>
